X: 128
T: Pet of the Pipers
C: J-56
M: 6/8
Z: Transcribed to abc by Mary Lou Knack
R: jig
K: G
"G"G3 BAG| dBG gdB| G3 BAG| "Am"FED "D"cBA|
"G"G3 BAG| dBG g2d| "C"efg "G"dBG |1 "D"cAF "G"G2D :|2 "D"cAF "G"GBd |]
|:\
"C"g3 efg| "D"agf "G"ged| "C"g3 efg| "D"agf "G"g2d|
"C"gfe "G"dcB| "C"edc "G"BAG| "C"efg "G"dBG| "D"cAF "G"G3 :|
%%text 9/1/98
